X:2406
T:Mraane Kilkenny 
C:Miss Mary Gawne, Peel 
C:Traditional
O:Isle of Man
Z:Kiaull Vannin 406 
M:3/4 
L:1/8 
Q:120 
K:G 
D G D|G2 A cBA|G2 D A/B/ c c|dB GE FG|!fermata!A3 A/B/ cc| 
d2 GA BA|(G>F) D A/G/ FD|GB dc BA|G3||

